dist/assets/images/icons/lock.svg

<svg width="29" height="30" viewBox="0 0 29 30" fill="none" xmlns="http://www.w3.org/2000/svg">
<path d="M14.5002 22.7153C15.1162 22.7153 15.6155 22.2548 15.6155 21.6868C15.6155 21.1187 15.1162 20.6582 14.5002 20.6582C13.8841 20.6582 13.3848 21.1187 13.3848 21.6868C13.3848 22.2548 13.8841 22.7153 14.5002 22.7153Z" stroke="#C0C0C0" stroke-width="2.09135" stroke-linecap="round" stroke-linejoin="round"/>
<path d="M14.5017 17.5712V20.6569M2.23242 12.4283V27.8569H26.7709V12.4283H2.23242ZM6.69396 12.4283C6.69396 6.25686 6.69396 2.14258 14.5017 2.14258C22.3093 2.14258 22.3093 6.25686 22.3093 12.4283H6.69396Z" stroke="#C0C0C0" stroke-width="2.14815" stroke-linecap="round" stroke-linejoin="round"/>
</svg>

<svg width="29" height="30" fill="none" xmlns="http://www.w3.org/2000/svg"><path d="M14.5 22.715c.616 0 1.116-.46 1.116-1.028 0-.568-.5-1.029-1.116-1.029-.616 0-1.115.46-1.115 1.029 0 .568.5 1.028 1.115 1.028z" stroke="silver" stroke-width="2.091" stroke-linecap="round" stroke-linejoin="round"/><path d="M14.502 17.571v3.086m-12.27-8.229v15.429h24.539V12.428H2.232zm4.462 0c0-6.171 0-10.285 7.808-10.285 7.807 0 7.807 4.114 7.807 10.285H6.694z" stroke="silver" stroke-width="2.148" stroke-linecap="round" stroke-linejoin="round"/></svg>
